teeny/outline/ms-powerpoint.svg

<svg width="15" height="15" viewBox="0 0 15 15" fill="none" xmlns="http://www.w3.org/2000/svg">
<path d="M1.75464 3.5C3.01958 1.68652 5.1212 0.5 7.49995 0.5C11.3659 0.5 14.4999 3.63401 14.4999 7.5C14.4999 11.366 11.3659 14.5 7.49995 14.5C5.1212 14.5 3.01958 13.3135 1.75464 11.5M2.5 10V8.5M2.5 8.5V5.5H5C5.82843 5.5 6.5 6.17157 6.5 7C6.5 7.82843 5.82843 8.5 5 8.5H2.5ZM1.5 3.5H7.5C8.05228 3.5 8.5 3.94772 8.5 4.5V10.5C8.5 11.0523 8.05228 11.5 7.5 11.5H1.5C0.947715 11.5 0.5 11.0523 0.5 10.5V4.5C0.5 3.94772 0.947715 3.5 1.5 3.5Z" stroke="black"/>
</svg>

<svg viewBox="0 0 15 15" xmlns="http://www.w3.org/2000/svg"><path fill="none" stroke="#000" d="M1.75 3.5c1.26-1.82 3.36-3 5.74-3 3.86 0 6.99 3.13 6.99 7 0 3.86-3.14 7-7 7 -2.38 0-4.49-1.19-5.75-3m.74-1.5V8.5m0 0v-3h2.5c.82 0 1.5.67 1.5 1.5 0 .82-.68 1.5-1.5 1.5h-2.5Zm-1-5h6c.55 0 1 .44 1 1v6c0 .55-.45 1-1 1h-6c-.56 0-1-.45-1-1v-6c0-.56.44-1 1-1Z"/></svg>
